examples/demo-composable-pfp/assets/body/dark.svg

<?xml version="1.0" encoding="UTF-8"?>
<svg width="264px" height="280px" viewBox="0 0 264 280" version="1.1" xmlns="http://www.w3.org/2000/svg" xmlns:xlink="http://www.w3.org/1999/xlink">
    <!-- Generator: Sketch 58 (84663) - https://sketch.com -->
    <title>EDIT ME</title>
    <desc>Created with Sketch.</desc>
    <defs>
        <path d="M100,0 C130.927946,-7.10542736e-15 156,25.072054 156,56 L156.000809,62.1660527 C161.675838,63.1185422 166,68.05429 166,74 L166,88 C166,94.0524166 161.519235,99.0582945 155.693975,99.8813638 C153.627928,119.686472 141.237929,136.421678 124.001014,144.610469 L124,163 L128,163 C167.764502,163 200,195.235498 200,235 L200,244 L0,244 L0,235 C0,195.235498 32.235498,163 72,163 L76,163 L75.9999836,144.610943 C58.7625487,136.422324 46.3721119,119.686854 44.3051107,99.8809698 C38.480765,99.0582945 34,94.0524166 34,88 L34,74 C34,68.053942 38.3246685,63.1179645 44.0001873,62.1658855 L44,56 C44,25.072054 69.072054,7.10542736e-15 100,0 Z" id="path-1"></path>
    </defs>
    <g id="EDIT-ME" stroke="none" stroke-width="1" fill="none" fill-rule="evenodd">
        <g id="Body" transform="translate(32.000000, 36.000000)">
            <mask id="mask-2" fill="white">
                <use xlink:href="#path-1"></use>
            </mask>
            <use fill="#D0C6AC" xlink:href="#path-1"></use>
            <g id="Skin/👶🏿-01-Black" mask="url(#mask-2)" fill="#6D4C3D">
                <g transform="translate(-32.000000, 0.000000)" id="Color">
                    <rect x="0" y="0" width="264" height="244"></rect>
                </g>
            </g>
            <path d="M44,94 C44,124.927946 69.072054,150 100,150 C130.927946,150 156,124.927946 156,94 L156,94 L156,102 C156,132.927946 130.927946,158 100,158 C69.072054,158 44,132.927946 44,102 Z" id="Neck-Shadow" fill-opacity="0.100000001" fill="#000000" mask="url(#mask-2)"></path>
        </g>
    </g>
</svg>

<svg xmlns="http://www.w3.org/2000/svg" xmlns:xlink="http://www.w3.org/1999/xlink" width="264" height="280"><defs><path id="10ecdd5a__a" d="M100 0c30.928 0 56 25.072 56 56v6.166c5.676.953 10 5.888 10 11.834v14c0 6.052-4.48 11.058-10.306 11.881-2.066 19.805-14.456 36.54-31.693 44.73L124 163h4c39.765 0 72 32.235 72 72v9H0v-9c0-39.765 32.235-72 72-72h4v-18.39c-17.237-8.188-29.628-24.923-31.695-44.729C38.481 99.058 34 94.052 34 88V74c0-5.946 4.325-10.882 10-11.834V56c0-30.928 25.072-56 56-56"/></defs><g fill="none" fill-rule="evenodd" transform="translate(32 36)"><mask id="0f66f215__b" fill="#fff"><use xlink:href="#10ecdd5a__a"/></mask><use xlink:href="#10ecdd5a__a" fill="#D0C6AC"/><g fill="#6D4C3D" mask="url(#0f66f215__b)"><path d="M-32 0h264v244H-32z"/></g><path fill="#000" fill-opacity=".1" d="M44 94c0 30.928 25.072 56 56 56s56-25.072 56-56v8c0 30.928-25.072 56-56 56s-56-25.072-56-56Z" mask="url(#0f66f215__b)"/></g></svg>
